X:1
T:Washington and Lee Swing
T:Washington and Lee Swing
T:T. Allen and M. Sheafe  - 1910
L:1/8
M:4/4
K:Bb
V:1 treble nm="P1"
V:1
"^= 240" z2 F2 G2 A2 ||"Bb""^A" B4 A4 | G4 A4 | G2 _G2 F4- | F2 F2 G2 A2 |"Bb" B4 A4 | %6
"Ddim" G4 F4 |"F7" A2 ^G2 A4- | A2 A2 B2 =B2 |"F" c4 B4 | A4 G4 | G2 _G2 F4- | F2 F2 G2 A2 | %13
"F" c4 =B4 | c4 ^c4 |"Bb" d2 z B A2 G2 |"F7" F2 F2 G2 A2 ||"Bb""^B" B4 A4 | G4 A4 | G2 _G2 F4- | %20
 F2 F2 G2 A2 |"Bb" B4 A4 |"Bb7" B4 =B4 |"Eb" =B2 c2 G4 | z2 G2 ^F2 G2 |"Eb" c4 B4 |"Edim" A4 G4 | %27
"Bb" B2 G2 F4- |"G7" F2 =E2 F2 ^F2 |"C7" G4 ^G4 |"F7" A4 d4 |"Bb" B8- | B2 z2 z4 |] %33

